icons/lines/avalanche--avax-.svg

<svg xmlns="http://www.w3.org/2000/svg" width="24" height="24" viewBox="0 0 24 24" fill="none" stroke="currentColor" stroke-width="2" stroke-linecap="round" stroke-linejoin="round" >
  <path d="M6.10004 15.6L11.7 5.99999C11.9 5.69999 12.3 5.69999 12.5 5.99999L14 7.99999C14.4 8.59999 14.5 9.39999 14.1 9.99999L10.8 15.3C10.5 15.8 9.90004 16.2 9.30004 16.2H6.40004C6.10004 16.3 5.90004 15.9 6.10004 15.6Z" stroke-miterlimit="10"/>
  <path d="M15.2001 12.4L13.3001 15.6C13.1001 15.9 13.3001 16.3 13.7001 16.3H17.5001C17.9001 16.3 18.1001 15.9 17.9001 15.6L16.0001 12.4C15.8001 12.1 15.4001 12.1 15.2001 12.4Z" stroke-miterlimit="10"/>
  <path d="M12 22C17.5228 22 22 17.5228 22 12C22 6.47715 17.5228 2 12 2C6.47715 2 2 6.47715 2 12C2 17.5228 6.47715 22 12 22Z" stroke-miterlimit="10"/>
  </svg>

<svg xmlns="http://www.w3.org/2000/svg" width="24" height="24" viewBox="0 0 24 24" fill="none" stroke="currentColor" stroke-width="2" stroke-linecap="round" stroke-linejoin="round">
  <path d="M11.7 6a.468.468 0 0 1 .8 0L14 8c.4.6.5 1.4.1 2l-3.3 5.3c-.3.5-.9.9-1.5.9H6.4c-.3.1-.5-.3-.3-.6z" />
  <path d="M13.3 15.6a.449.449 0 0 0 .4.7h3.8a.449.449 0 0 0 .4-.7L16 12.4a.468.468 0 0 0-.8 0z" />
  <circle cx="12" cy="12" r="10" />
</svg>
